svg/aws-sns.svg

<?xml version="1.0" encoding="UTF-8"?>
<svg xmlns="http://www.w3.org/2000/svg" xmlns:xlink="http://www.w3.org/1999/xlink" width="32" height="32" viewBox="0 0 32 32">
<path fill-rule="nonzero" fill="rgb(90.588236%, 8.235294%, 48.235294%)" fill-opacity="1" d="M 0.203125 0.203125 L 31.796875 0.203125 L 31.796875 31.796875 L 0.203125 31.796875 Z M 0.203125 0.203125 "/>
<path fill-rule="nonzero" fill="rgb(100%, 100%, 100%)" fill-opacity="1" d="M 5.199219 15.082031 C 5.707031 15.082031 6.117188 15.492188 6.121094 16 C 6.121094 16.507812 5.707031 16.921875 5.199219 16.921875 C 4.691406 16.921875 4.28125 16.507812 4.28125 16 C 4.28125 15.492188 4.691406 15.082031 5.199219 15.082031 M 16.230469 27.03125 C 10.859375 27.03125 6.253906 23.109375 5.289062 17.832031 C 6.089844 17.792969 6.773438 17.234375 6.972656 16.457031 L 9.792969 16.457031 L 9.792969 15.542969 L 6.972656 15.542969 C 6.773438 14.765625 6.089844 14.207031 5.289062 14.167969 C 6.25 8.972656 10.949219 4.96875 16.230469 4.96875 C 18.210938 4.96875 20.289062 5.714844 22.398438 7.1875 L 22.925781 6.433594 C 20.660156 4.851562 18.402344 4.050781 16.230469 4.050781 C 10.378906 4.050781 5.175781 8.582031 4.308594 14.398438 C 3.726562 14.722656 3.367188 15.332031 3.363281 16 C 3.363281 16.6875 3.746094 17.285156 4.308594 17.601562 C 5.183594 23.511719 10.28125 27.949219 16.230469 27.949219 C 18.714844 27.949219 21.257812 27.101562 23.390625 25.5625 L 22.855469 24.816406 C 20.878906 26.242188 18.523438 27.03125 16.230469 27.03125 M 11.21875 14.363281 C 12.074219 14.574219 13.140625 14.621094 13.929688 14.621094 C 14.6875 14.621094 15.6875 14.578125 16.519531 14.394531 L 14.441406 18.550781 C 14.410156 18.613281 14.390625 18.6875 14.390625 18.757812 L 14.390625 20.804688 C 14.023438 21.039062 13.394531 21.429688 13.015625 21.507812 L 13.015625 18.757812 C 13.015625 18.695312 13.003906 18.636719 12.976562 18.582031 Z M 13.929688 12.785156 C 15.78125 12.785156 16.769531 13.058594 17.082031 13.242188 C 16.769531 13.421875 15.78125 13.703125 13.929688 13.703125 C 12.082031 13.703125 11.09375 13.421875 10.785156 13.242188 C 11.09375 13.058594 12.082031 12.785156 13.929688 12.785156 M 12.554688 22.433594 L 13.015625 22.433594 C 13.03125 22.433594 13.050781 22.433594 13.070312 22.429688 C 13.632812 22.355469 14.351562 21.921875 14.976562 21.519531 L 15.097656 21.445312 C 15.230469 21.359375 15.3125 21.214844 15.3125 21.054688 L 15.3125 18.867188 L 17.867188 13.757812 C 17.996094 13.617188 18.070312 13.433594 18.070312 13.242188 C 18.070312 12.042969 15.476562 11.863281 13.929688 11.863281 C 12.386719 11.863281 9.792969 12.042969 9.792969 13.242188 C 9.792969 13.410156 9.851562 13.558594 9.945312 13.6875 L 12.09375 18.847656 L 12.09375 21.976562 C 12.09375 22.097656 12.144531 22.214844 12.230469 22.300781 C 12.316406 22.386719 12.433594 22.433594 12.554688 22.433594 M 25.878906 21.976562 C 26.125 21.976562 26.359375 22.074219 26.53125 22.246094 C 26.703125 22.417969 26.800781 22.652344 26.800781 22.894531 C 26.796875 23.398438 26.386719 23.804688 25.882812 23.804688 C 25.378906 23.804688 24.96875 23.398438 24.960938 22.894531 C 24.960938 22.386719 25.375 21.976562 25.878906 21.976562 M 25.878906 8.1875 C 26.125 8.1875 26.359375 8.28125 26.53125 8.453125 C 26.703125 8.625 26.800781 8.859375 26.800781 9.105469 C 26.796875 9.609375 26.386719 10.015625 25.882812 10.015625 C 25.378906 10.015625 24.96875 9.609375 24.960938 9.105469 C 24.960938 8.597656 25.375 8.1875 25.878906 8.1875 M 26.800781 15.082031 C 27.308594 15.082031 27.71875 15.492188 27.71875 16 C 27.71875 16.507812 27.308594 16.921875 26.800781 16.917969 C 26.292969 16.917969 25.878906 16.507812 25.878906 16 C 25.878906 15.492188 26.292969 15.082031 26.800781 15.082031 M 22.207031 16.457031 L 25.027344 16.457031 C 25.234375 17.269531 25.964844 17.835938 26.800781 17.839844 C 27.816406 17.835938 28.636719 17.011719 28.636719 16 C 28.636719 14.988281 27.8125 14.160156 26.800781 14.160156 C 25.945312 14.160156 25.230469 14.75 25.027344 15.542969 L 22.207031 15.542969 L 22.207031 9.566406 L 24.109375 9.566406 C 24.3125 10.375 25.042969 10.945312 25.878906 10.945312 C 26.894531 10.945312 27.71875 10.117188 27.71875 9.105469 C 27.71875 8.09375 26.894531 7.265625 25.878906 7.265625 C 25.023438 7.265625 24.3125 7.859375 24.109375 8.648438 L 21.742188 8.648438 C 21.488281 8.648438 21.285156 8.851562 21.285156 9.105469 L 21.285156 15.542969 L 18.070312 15.542969 L 18.070312 16.457031 L 21.285156 16.457031 L 21.285156 22.894531 C 21.285156 23.144531 21.488281 23.351562 21.742188 23.351562 L 24.109375 23.351562 C 24.316406 24.164062 25.042969 24.730469 25.878906 24.734375 C 26.894531 24.734375 27.71875 23.90625 27.71875 22.894531 C 27.71875 21.882812 26.894531 21.054688 25.878906 21.054688 C 25.023438 21.054688 24.3125 21.640625 24.109375 22.433594 L 22.207031 22.433594 Z M 22.207031 16.457031 "/>
</svg>

<svg role="img" viewBox="0 0 32 32" xmlns="http://www.w3.org/2000/svg"><path d="M.203.203h31.594v31.594H.203Zm0 0" fill="rgb(90.588236%, 8.235294%, 48.235294%)"/><path d="M5.2 15.082c.507 0 .917.41.921.918a.92.92 0 1 1-.922-.918m11.031 11.95c-5.37 0-9.976-3.923-10.94-9.2a1.83 1.83 0 0 0 1.683-1.375h2.82v-.914h-2.82a1.83 1.83 0 0 0-1.684-1.375c.961-5.195 5.66-9.2 10.941-9.2 1.98 0 4.06.747 6.168 2.22l.528-.754C20.66 4.852 18.402 4.05 16.23 4.05c-5.85 0-11.054 4.532-11.92 10.348A1.84 1.84 0 0 0 3.363 16c0 .688.383 1.285.946 1.602.875 5.91 5.972 10.347 11.921 10.347 2.485 0 5.028-.847 7.16-2.387l-.535-.746c-1.976 1.426-4.332 2.215-6.625 2.215m-5.01-12.668c.855.211 1.922.258 2.71.258.758 0 1.758-.043 2.59-.226l-2.078 4.156a.5.5 0 0 0-.05.207v2.047c-.368.234-.996.625-1.375.703v-2.75a.4.4 0 0 0-.04-.176Zm2.71-1.578c1.852 0 2.84.274 3.153.457-.312.18-1.3.461-3.152.461-1.848 0-2.836-.281-3.145-.46.309-.184 1.297-.458 3.145-.458m-1.375 9.649h.46q.025.001.055-.004c.563-.075 1.282-.508 1.907-.91l.12-.075a.46.46 0 0 0 .216-.39v-2.188l2.554-5.11a.77.77 0 0 0 .203-.515c0-1.199-2.593-1.379-4.14-1.379-1.543 0-4.137.18-4.137 1.38 0 .167.059.316.152.444l2.149 5.16v3.13a.46.46 0 0 0 .46.457m13.325-.457a.92.92 0 0 1 .922.918.92.92 0 0 1-.918.91.924.924 0 0 1-.922-.91.92.92 0 0 1 .918-.918m0-13.79a.92.92 0 0 1 .922.918.92.92 0 0 1-.918.91.924.924 0 0 1-.922-.91.92.92 0 0 1 .918-.918m.922 6.895c.508 0 .918.41.918.918s-.41.922-.918.918A.92.92 0 0 1 25.88 16a.92.92 0 0 1 .922-.918m-4.594 1.375h2.82a1.84 1.84 0 0 0 1.774 1.383A1.84 1.84 0 0 0 28.637 16c0-1.012-.825-1.84-1.836-1.84-.856 0-1.57.59-1.774 1.383h-2.82V9.566h1.902a1.826 1.826 0 0 0 1.77 1.38c1.016 0 1.84-.829 1.84-1.84s-.824-1.84-1.84-1.84c-.856 0-1.567.593-1.77 1.382h-2.367a.455.455 0 0 0-.457.457v6.438H18.07v.914h3.215v6.438c0 .25.203.457.457.457h2.367a1.83 1.83 0 0 0 1.77 1.382c1.016 0 1.84-.828 1.84-1.84 0-1.011-.824-1.84-1.84-1.84-.856 0-1.567.587-1.77 1.38h-1.902Zm0 0" fill="rgb(100%, 100%, 100%)"/></svg>
